!!!OTL: KOMM SUESSER SCHLAF
!!!ARE: Europa, Mitteleuropa, Deutschland
!!!SCT: F1055
!!!YEM: Copyright 1995, estate of Helmut Schaffrath.
**kern
*ICvox
*Ivox
*M2/4
*k[b-e-]
*B-:
{8b-
=1
8b-
8a
8a
8cc
=2
4.b-
8dd
=3
8ee-
8cc
8b-
8a
=4
4b-
8r}
{8dd
=5
8dd
8ee-
8dd
8cc
=6
8cc
8b-
8a
8b-
=7
8cc
8dd
8cc
8b-
=8
4a
8r}
{8a
=9
8a
4b-
8dd
=10
8dd
4cc
8ee-
=11
2dd
=12
4cc
8r}
{8cc
=13
8ff
8dd
8b-
8a-
=14
8g
8ee-
8dd
8cc
=15
4b-
4a
=16
4b-
8r}
==
!!!AGN: Trost - Lied
!!!ONB: ESAC (Essen Associative Code) Database: FINK
!!!AMT: simple duple
!!!AIN: vox
!!!EED: Helmut Schaffrath
!!!EEV: 1.0
*-
